Obsidian-SemiLight/actions/22s/nextfuzzyuntrans.svg

<svg viewBox="0 0 22 22" xmlns="http://www.w3.org/2000/svg"><path d="m8.96875 3c-1.75093 0-3.40688.4216019-4.96875 1.2636719l.7773438 1.7871093c.7809199-.3835199 1.4827018-.6574787 2.1074218-.8242187.63297-.16673 1.2779269-.25 1.9355469-.25.98644 0 1.7434215.2202494 2.2695315.6621094.5261.44187.789062 1.0750006.789062 1.9003906 0 .44187-.056795.8305625-.171875 1.1640625-.11508.33348-.312307.66651-.591797 1-.27948.33349-.867671.883351-1.7636715 1.650391-1.10008 1.00333-2.2511025 2.785484-2.3515625 4.646484h2l-.0058594-.03125c0-.75868.1314713-1.367612.3945313-1.826172.27128-.46689.8131331-1.055002 1.6269531-1.763672.99467-.84207 1.657528-1.47518 1.986328-1.90039.33704-.4252.587553-.8743797.751953-1.3496098.1645-.47523.246094-1.0217118.246094-1.6386718 0-1.41734-.44773-2.5190444-1.34375-3.3027344-.89601-.79204-2.12564-1.1875-3.6875-1.1875zm6.738281 9-.707031.707031 2.292969 2.292969h-4.292969v1h4.292969l-2.292969 2.292969.707031.707031 3.292969-3.292969.207031-.207031-.207031-.207031zm-8.707031 5v2h2v-2z" fill="#4d4d4d"/></svg>

<svg xmlns="http://www.w3.org/2000/svg" viewBox="0 0 22 22">
  <defs id="defs3051">
    <style type="text/css" id="current-color-scheme">
      .ColorScheme-Text {
        color:#4d4d4d;
      }
      </style>
  </defs>
 <path 
     style="fill:currentColor;fill-opacity:1;stroke:none" 
     d="M 8.96875 3 C 7.21782 3 5.56187 3.4216019 4 4.2636719 L 4.7773438 6.0507812 C 5.5582637 5.6672613 6.2600456 5.3933025 6.8847656 5.2265625 C 7.5177356 5.0598325 8.1626925 4.9765625 8.8203125 4.9765625 C 9.8067525 4.9765625 10.563734 5.1968119 11.089844 5.6386719 C 11.615944 6.0805419 11.878906 6.7136725 11.878906 7.5390625 C 11.878906 7.9809325 11.822111 8.369625 11.707031 8.703125 C 11.591951 9.036605 11.394724 9.369635 11.115234 9.703125 C 10.835754 10.036615 10.247563 10.586476 9.3515625 11.353516 C 8.2514825 12.356846 7.10046 14.139 7 16 L 9 16 L 8.9941406 15.96875 C 8.9941406 15.21007 9.1256119 14.601138 9.3886719 14.142578 C 9.6599519 13.675688 10.201805 13.087576 11.015625 12.378906 C 12.010295 11.536836 12.673153 10.903726 13.001953 10.478516 C 13.338993 10.053316 13.589506 9.6041363 13.753906 9.1289062 C 13.918406 8.6536762 14 8.1071944 14 7.4902344 C 14 6.0728944 13.55227 4.97119 12.65625 4.1875 C 11.76024 3.39546 10.53061 3 8.96875 3 z M 15.707031 12 L 15 12.707031 L 17.292969 15 L 13 15 L 13 16 L 17.292969 16 L 15 18.292969 L 15.707031 19 L 19 15.707031 L 19.207031 15.5 L 19 15.292969 L 15.707031 12 z M 7 17 L 7 19 L 9 19 L 9 17 L 7 17 z "
     class="ColorScheme-Text"
     />
 </svg>
